X: 1
T: Bonnie at Morn
C: Trad.
O: Northumbria
S: Concord (MA) Slow Scottish Session collection
R: waltz, air
Z: 2006 John Chambers <jc:trillian.mit.edu>
M: 3/4
L: 1/8
K: Am
[|\
"Am"e3 fed | e2 A2 Bc | "G"d3 cBA | G3 A B2 |\
"Am"e3 fed | "(F)"e2 A2 Bc | "G"dB G2 B2 | "Am"A4 A2 ||
||\
"Am"e3 fed | e2 A2 Bc | "G"d3 cBA | G3 A B2 |\
"Am"AG AB cd | e2 a2 g2 | "G"d g3 B2 | "Am"A6 |]
|:\
"Am"A2 a2 a2 | A3 B c2 | "G"B2 g2 g2 | G3 A B2 |\
"Am"AG AB cd | e2 a2 g2 | "G(Em)"d g3 B2 | "Am"A4 :|
